svgs/sharp-solid/honey-pot.svg

<svg xmlns="http://www.w3.org/2000/svg" viewBox="0 0 448 512"><!--! Font Awesome Pro 6.6.0 by @fontawesome - https://fontawesome.com License - https://fontawesome.com/license (Commercial License) Copyright 2024 Fonticons, Inc. --><path d="M128 32L64 32 32 32l0 64 32 0C25.1 125.2 0 171.7 0 224C0 400 128 480 128 480l192 0s128-80 128-256c0-52.3-25.1-98.8-64-128l32 0 0-64-32 0L176 32l0 104 0 24-48 0 0-24 0-104zM96.9 352C78.7 320.3 64 278.1 64 224l320 0c0 54.1-14.7 96.3-32.9 128L96.9 352z"/></svg>

<svg xmlns="http://www.w3.org/2000/svg" viewBox="0 0 448 512"><!--! Font Awesome Pro 6.4.2 by @fontawesome - https://fontawesome.com License - https://fontawesome.com/license (Commercial License) Copyright 2023 Fonticons, Inc. --><path d="M128 32H64 32V96H64C25.1 125.2 0 171.7 0 224C0 400 128 480 128 480H320s128-80 128-256c0-52.3-25.1-98.8-64-128h32V32H384 176V136v24H128V136 32zM96.9 352C78.7 320.3 64 278.1 64 224H384c0 54.1-14.7 96.3-32.9 128H96.9z"/></svg>
